icons/coupon-4-line.svg

<svg xmlns="http://www.w3.org/2000/svg" width="24" height="24" fill="none"><g clip-path="url(#a)"><g><path fill="#121212" d="M10 21H3C2.73478 21 2.48043 20.8946 2.29289 20.7071C2.10536 20.5196 2 20.2652 2 20V4C2 3.73478 2.10536 3.48043 2.29289 3.29289C2.48043 3.10536 2.73478 3 3 3H10C10 3.53043 10.2107 4.03914 10.5858 4.41421C10.9609 4.78929 11.4696 5 12 5C12.5304 5 13.0391 4.78929 13.4142 4.41421C13.7893 4.03914 14 3.53043 14 3H21C21.2652 3 21.5196 3.10536 21.7071 3.29289C21.8946 3.48043 22 3.73478 22 4V20C22 20.2652 21.8946 20.5196 21.7071 20.7071C21.5196 20.8946 21.2652 21 21 21H14C14 20.4696 13.7893 19.9609 13.4142 19.5858C13.0391 19.2107 12.5304 19 12 19C11.4696 19 10.9609 19.2107 10.5858 19.5858C10.2107 19.9609 10 20.4696 10 21ZM8.535 19C8.88599 18.3917 9.39105 17.8865 9.99934 17.5354C10.6076 17.1843 11.2977 16.9996 12 17C13.48 17 14.773 17.804 15.465 19H20V5H15.465C15.114 5.60835 14.6089 6.11349 14.0007 6.46459C13.3924 6.8157 12.7023 7.00036 12 7C11.2977 7.00036 10.6076 6.8157 9.99934 6.46459C9.39105 6.11349 8.88599 5.60835 8.535 5H4V19H8.535ZM6 8H8V16H6V8ZM16 8H18V16H16V8Z"/></g></g><defs><clipPath id="a"><rect width="24" height="24" fill="white"/></clipPath></defs></svg>

<svg width="24" height="24" fill="none" xmlns="http://www.w3.org/2000/svg"><g clip-path="url(#a)"><path d="M10 21H3a1 1 0 0 1-1-1V4a1 1 0 0 1 1-1h7a2 2 0 1 0 4 0h7a1 1 0 0 1 1 1v16a1 1 0 0 1-1 1h-7a2 2 0 0 0-4 0Zm-1.465-2A3.998 3.998 0 0 1 12 17c1.48 0 2.773.804 3.465 2H20V5h-4.535a3.999 3.999 0 0 1-5.466 1.465A3.998 3.998 0 0 1 8.535 5H4v14h4.535ZM6 8h2v8H6V8Zm10 0h2v8h-2V8Z" /></g><defs><clipPath id="a"><path fill="#fff" d="M0 0h24v24H0z"/></clipPath></defs></svg>
